assets/icons/statuseffects/blocked.svg

<?xml version="1.0" encoding="utf-8"?>
<!-- Generated by IcoMoon.io -->
<!DOCTYPE svg PUBLIC "-//W3C//DTD SVG 1.1//EN" "http://www.w3.org/Graphics/SVG/1.1/DTD/svg11.dtd">
<svg version="1.1" xmlns="http://www.w3.org/2000/svg" xmlns:xlink="http://www.w3.org/1999/xlink" width="27" height="27" viewBox="0 0 27 27">
	<path d="M0 13.5c0 7.456 6.044 13.5 13.5 13.5 7.456 0 13.5-6.044 13.5-13.5s-6.044-13.5-13.5-13.5c-7.456 0-13.5 6.044-13.5 13.5zM23.625 13.5c0 1.931-0.541 3.736-1.479 5.271l-13.917-13.917c1.535-0.938 3.34-1.479 5.271-1.479 5.592 0 10.125 4.533 10.125 10.125zM3.375 13.5c0-1.931 0.541-3.736 1.479-5.271l13.917 13.917c-1.535 0.938-3.34 1.479-5.271 1.479-5.592 0-10.125-4.533-10.125-10.125z" fill="#ffffff" />
</svg>

<?xml version="1.0" encoding="UTF-8" standalone="no"?>
<!-- Generated by IcoMoon.io -->

<svg
   xmlns:dc="http://purl.org/dc/elements/1.1/"
   xmlns:cc="http://creativecommons.org/ns#"
   xmlns:rdf="http://www.w3.org/1999/02/22-rdf-syntax-ns#"
   xmlns:svg="http://www.w3.org/2000/svg"
   xmlns="http://www.w3.org/2000/svg"
   xmlns:sodipodi="http://sodipodi.sourceforge.net/DTD/sodipodi-0.dtd"
   xmlns:inkscape="http://www.inkscape.org/namespaces/inkscape"
   version="1.1"
   width="27"
   height="27"
   viewBox="0 0 27 27"
   id="svg2"
   inkscape:version="0.48.4 r9939"
   sodipodi:docname="blocked.svg">
  <metadata
     id="metadata10">
    <rdf:RDF>
      <cc:Work
         rdf:about="">
        <dc:format>image/svg+xml</dc:format>
        <dc:type
           rdf:resource="http://purl.org/dc/dcmitype/StillImage" />
      </cc:Work>
    </rdf:RDF>
  </metadata>
  <defs
     id="defs8" />
  <sodipodi:namedview
     pagecolor="#ffffff"
     bordercolor="#666666"
     borderopacity="1"
     objecttolerance="10"
     gridtolerance="10"
     guidetolerance="10"
     inkscape:pageopacity="0"
     inkscape:pageshadow="2"
     inkscape:window-width="708"
     inkscape:window-height="841"
     id="namedview6"
     showgrid="false"
     inkscape:zoom="8.7407407"
     inkscape:cx="31.347458"
     inkscape:cy="13.5"
     inkscape:window-x="2426"
     inkscape:window-y="187"
     inkscape:window-maximized="0"
     inkscape:current-layer="svg2"
     fit-margin-top="0"
     fit-margin-left="0"
     fit-margin-right="0"
     fit-margin-bottom="0" />
  <path
     d="M 0,13.5 C 0,20.956 6.044,27 13.5,27 20.956,27 27,20.956 27,13.5 27,6.044 20.956,0 13.5,0 6.044,0 0,6.044 0,13.5 z m 23.625,0 c 0,1.931 -0.541,3.736 -1.479,5.271 L 8.229,4.854 c 1.535,-0.938 3.34,-1.479 5.271,-1.479 5.592,0 10.125,4.533 10.125,10.125 z m -20.25,0 c 0,-1.931 0.541,-3.736 1.479,-5.271 L 18.771,22.146 C 17.236,23.084 15.431,23.625 13.5,23.625 7.908,23.625 3.375,19.092 3.375,13.5 z"
     id="path4"
     style="fill:#000000;fill-opacity:1"
     inkscape:connector-curvature="0" />
</svg>
